svg/fax.svg

<svg xmlns="http://www.w3.org/2000/svg" viewBox="0 0 32 32"><path style="text-indent:0;text-align:start;line-height:normal;text-transform:none;block-progression:tb;-inkscape-font-specification:Bitstream Vera Sans" d="M12 5v5h-2V8H4v18h2v1c0 1.645 1.355 3 3 3s3-1.355 3-3v-1h16V10h-4V5H12zm2 2h8v5h-8V7zm-8 3h2v14H6V10zm4 2h2v2h12v-2h2v12H10V12zm3 4v2h2v-2h-2zm4 0v2h2v-2h-2zm4 0v2h2v-2h-2zm-8 4v2h2v-2h-2zm4 0v2h2v-2h-2zm4 0v2h2v-2h-2zM8 26h2v1c0 .555-.445 1-1 1-.555 0-1-.445-1-1v-1z"/></svg>

<svg xmlns="http://www.w3.org/2000/svg" viewBox="0 0 32 32" enable-background="new 0 0 32 32"><path d="M 12 5 L 12 6 L 12 10 L 10 10 L 10 9 L 10 8 L 9 8 L 5 8 L 4 8 L 4 9 L 4 25 L 4 26 L 5 26 L 6 26 L 6 27 C 6 28.645455 7.3545455 30 9 30 C 10.645455 30 12 28.645455 12 27 L 12 26 L 27 26 L 28 26 L 28 25 L 28 11 L 28 10 L 27 10 L 24 10 L 24 6 L 24 5 L 23 5 L 13 5 L 12 5 z M 14 7 L 22 7 L 22 12 L 14 12 L 14 7 z M 6 10 L 8 10 L 8 11 L 8 24 L 6 24 L 6 10 z M 10 12 L 12 12 L 12 13 L 12 14 L 13 14 L 23 14 L 24 14 L 24 13 L 24 12 L 26 12 L 26 24 L 10 24 L 10 12 z M 13 16 L 13 18 L 15 18 L 15 16 L 13 16 z M 17 16 L 17 18 L 19 18 L 19 16 L 17 16 z M 21 16 L 21 18 L 23 18 L 23 16 L 21 16 z M 13 20 L 13 22 L 15 22 L 15 20 L 13 20 z M 17 20 L 17 22 L 19 22 L 19 20 L 17 20 z M 21 20 L 21 22 L 23 22 L 23 20 L 21 20 z M 8 26 L 9 26 L 10 26 L 10 27 C 10 27.554545 9.5545455 28 9 28 C 8.4454545 28 8 27.554545 8 27 L 8 26 z"/></svg>
